Numix-GalliumOS/64/mimetypes/audio-x-smart-playlist.svg

<svg xmlns="http://www.w3.org/2000/svg" xmlns:xlink="http://www.w3.org/1999/xlink" width="64px" height="64px" viewBox="0 0 64 64" version="1.1">
<g id="surface1">
<path style=" stroke:none;fill-rule:nonzero;fill:rgb(60.784314%,29.019608%,52.156863%);fill-opacity:1;" d="M 10.671875 0 C 9.296875 0 8 1.355469 8 2.789062 L 8 61.210938 C 8 62.566406 9.375 64 10.671875 64 L 53.328125 64 C 54.625 64 56 62.566406 56 61.210938 L 56 18 L 38 0 Z M 10.671875 0 "/>
<path style=" stroke:none;fill-rule:nonzero;fill:rgb(0%,0%,0%);fill-opacity:0.196078;" d="M 42 18 L 56 32 L 56 18 Z M 42 18 "/>
<path style=" stroke:none;fill-rule:nonzero;fill:rgb(100%,100%,100%);fill-opacity:0.392157;" d="M 38 0 L 55.984375 18 L 40.757812 18 C 39.410156 18 38 16.574219 38 15.226562 Z M 38 0 "/>
<path style=" stroke:none;fill-rule:nonzero;fill:rgb(100%,100%,100%);fill-opacity:1;" d="M 26.9375 26.90625 C 25.382812 27.296875 24.078125 28.726562 24.078125 28.726562 L 24.117188 28.765625 L 26.609375 38.015625 C 24.828125 37.046875 22.289062 37.289062 20.1875 38.8125 C 17.46875 40.773438 16.523438 44.117188 18.09375 46.273438 C 19.671875 48.4375 23.140625 48.585938 25.859375 46.625 C 28 45.070312 29.1875 42.632812 28.757812 40.632812 C 28.75 40.570312 28.726562 40.507812 28.710938 40.445312 L 26.320312 31.203125 C 26.375 31.125 27.078125 30.804688 29.328125 30.648438 C 31.71875 30.492188 33.335938 26.664062 33.335938 26.664062 C 33.335938 26.664062 30.648438 27.695312 28.539062 26.953125 C 28.007812 26.765625 27.453125 26.773438 26.9375 26.90625 Z M 26.9375 26.90625 "/>
<path style=" stroke:none;fill-rule:nonzero;fill:rgb(100%,100%,100%);fill-opacity:1;" d="M 32 38 L 32 40 L 46 40 L 46 38 Z M 32 38 "/>
<path style=" stroke:none;fill-rule:nonzero;fill:rgb(100%,100%,100%);fill-opacity:1;" d="M 32 42 L 32 44 L 46 44 L 46 42 Z M 32 42 "/>
<path style=" stroke:none;fill-rule:nonzero;fill:rgb(100%,100%,100%);fill-opacity:1;" d="M 30 46 L 30 48 L 46 48 L 46 46 Z M 30 46 "/>
<path style=" stroke:none;fill-rule:nonzero;fill:rgb(100%,100%,100%);fill-opacity:1;" d="M 39.445312 25.773438 C 39.195312 25.773438 39 25.976562 39 26.21875 L 39 27.21875 C 38.554688 27.320312 38.140625 27.5 37.765625 27.734375 L 37.054688 27.023438 C 36.882812 26.851562 36.601562 26.851562 36.429688 27.023438 L 35.804688 27.648438 C 35.632812 27.828125 35.632812 28.101562 35.804688 28.273438 L 36.515625 28.984375 C 36.273438 29.359375 36.101562 29.773438 36 30.21875 L 35 30.21875 C 34.75 30.21875 34.554688 30.421875 34.554688 30.664062 L 34.554688 31.554688 C 34.554688 31.796875 34.75 32 35 32 L 36 32 C 36.101562 32.445312 36.273438 32.859375 36.515625 33.234375 L 35.804688 33.945312 C 35.632812 34.117188 35.632812 34.390625 35.804688 34.570312 L 36.429688 35.195312 C 36.601562 35.367188 36.882812 35.367188 37.054688 35.195312 L 37.765625 34.484375 C 38.140625 34.71875 38.554688 34.898438 39 35 L 39 36 C 39 36.242188 39.195312 36.445312 39.445312 36.445312 L 40.335938 36.445312 C 40.578125 36.445312 40.773438 36.242188 40.773438 36 L 40.773438 35 C 41.226562 34.898438 41.640625 34.71875 42.015625 34.484375 L 42.71875 35.195312 C 42.898438 35.367188 43.171875 35.367188 43.34375 35.195312 L 43.96875 34.570312 C 44.148438 34.390625 44.148438 34.117188 43.96875 33.945312 L 43.265625 33.234375 C 43.5 32.859375 43.671875 32.445312 43.773438 32 L 44.773438 32 C 45.023438 32 45.21875 31.796875 45.21875 31.554688 L 45.21875 30.664062 C 45.21875 30.421875 45.023438 30.21875 44.773438 30.21875 L 43.773438 30.21875 C 43.671875 29.773438 43.5 29.359375 43.265625 28.984375 L 43.96875 28.273438 C 44.148438 28.101562 44.148438 27.828125 43.96875 27.648438 L 43.34375 27.023438 C 43.171875 26.851562 42.898438 26.851562 42.71875 27.023438 L 42.015625 27.734375 C 41.640625 27.5 41.226562 27.320312 40.773438 27.21875 L 40.773438 26.21875 C 40.773438 25.976562 40.578125 25.773438 40.335938 25.773438 Z M 39.890625 29.328125 C 40.867188 29.328125 41.664062 30.125 41.664062 31.109375 C 41.664062 32.09375 40.867188 32.890625 39.890625 32.890625 C 38.90625 32.890625 38.109375 32.09375 38.109375 31.109375 C 38.109375 30.125 38.90625 29.328125 39.890625 29.328125 Z M 39.890625 29.328125 "/>
</g>
</svg>

<svg xmlns="http://www.w3.org/2000/svg" viewBox="0 0 64 64">
 <g>
  <path d="m 10.672 0 c -1.375 0 -2.672 1.355 -2.672 2.789 l 0 58.42 c 0 1.355 1.375 2.789 2.672 2.789 l 42.656 0 c 1.297 0 2.672 -1.434 2.672 -2.789 l 0 -43.21 l -18 -18 m -27.328 0" style="fill:#9b4a85;fill-opacity:1;stroke:none;fill-rule:nonzero"/>
  <path d="m 42 18 l 14 14 l 0 -14 m -14 0" style="fill:#000;fill-opacity:0.196;stroke:none;fill-rule:nonzero"/>
  <path d="m 38 0 l 17.984 18 l -15.227 0 c -1.348 0 -2.758 -1.426 -2.758 -2.773 m 0 -15.227" style="fill:#fff;fill-opacity:0.392;stroke:none;fill-rule:nonzero"/>
  <path d="m 26.938 26.906 c -1.555 0.391 -2.859 1.82 -2.859 1.82 l 0.039 0.039 l 2.492 9.25 c -1.781 -0.969 -4.32 -0.727 -6.422 0.797 c -2.719 1.961 -3.664 5.305 -2.094 7.461 c 1.578 2.164 5.05 2.313 7.766 0.352 c 2.141 -1.555 3.328 -3.992 2.898 -5.992 c -0.008 -0.063 -0.031 -0.125 -0.047 -0.188 l -2.391 -9.242 c 0.055 -0.078 0.758 -0.398 3.01 -0.555 c 2.391 -0.156 4.01 -3.984 4.01 -3.984 c 0 0 -2.688 1.031 -4.797 0.289 c -0.531 -0.188 -1.086 -0.18 -1.602 -0.047 m 0 0" style="fill:#fff;fill-opacity:1;stroke:none;fill-rule:nonzero"/>
  <path d="m 32 38 l 0 2 l 14 0 l 0 -2 m -14 0" style="fill:#fff;fill-opacity:1;stroke:none;fill-rule:nonzero"/>
  <path d="m 32 42 l 0 2 l 14 0 l 0 -2 m -14 0" style="fill:#fff;fill-opacity:1;stroke:none;fill-rule:nonzero"/>
  <path d="m 30 46 l 0 2 l 16 0 l 0 -2 m -16 0" style="fill:#fff;fill-opacity:1;stroke:none;fill-rule:nonzero"/>
  <path d="m 39.445 25.773 c -0.25 0 -0.445 0.203 -0.445 0.445 l 0 1 c -0.445 0.102 -0.859 0.281 -1.234 0.516 l -0.711 -0.711 c -0.172 -0.172 -0.453 -0.172 -0.625 0 l -0.625 0.625 c -0.172 0.18 -0.172 0.453 0 0.625 l 0.711 0.711 c -0.242 0.375 -0.414 0.789 -0.516 1.234 l -1 0 c -0.25 0 -0.445 0.203 -0.445 0.445 l 0 0.891 c 0 0.242 0.195 0.445 0.445 0.445 l 1 0 c 0.102 0.445 0.273 0.859 0.516 1.234 l -0.711 0.711 c -0.172 0.172 -0.172 0.445 0 0.625 l 0.625 0.625 c 0.172 0.172 0.453 0.172 0.625 0 l 0.711 -0.711 c 0.375 0.234 0.789 0.414 1.234 0.516 l 0 1 c 0 0.242 0.195 0.445 0.445 0.445 l 0.891 0 c 0.242 0 0.438 -0.203 0.438 -0.445 l 0 -1 c 0.453 -0.102 0.867 -0.281 1.242 -0.516 l 0.703 0.711 c 0.18 0.172 0.453 0.172 0.625 0 l 0.625 -0.625 c 0.18 -0.18 0.18 -0.453 0 -0.625 l -0.703 -0.711 c 0.234 -0.375 0.406 -0.789 0.508 -1.234 l 1 0 c 0.25 0 0.445 -0.203 0.445 -0.445 l 0 -0.891 c 0 -0.242 -0.195 -0.445 -0.445 -0.445 l -1 0 c -0.102 -0.445 -0.273 -0.859 -0.508 -1.234 l 0.703 -0.711 c 0.18 -0.172 0.18 -0.445 0 -0.625 l -0.625 -0.625 c -0.172 -0.172 -0.445 -0.172 -0.625 0 l -0.703 0.711 c -0.375 -0.234 -0.789 -0.414 -1.242 -0.516 l 0 -1 c 0 -0.242 -0.195 -0.445 -0.438 -0.445 m -0.445 3.555 c 0.977 0 1.773 0.797 1.773 1.781 c 0 0.984 -0.797 1.781 -1.773 1.781 c -0.984 0 -1.781 -0.797 -1.781 -1.781 c 0 -0.984 0.797 -1.781 1.781 -1.781 m 0 0" style="fill:#fff;fill-opacity:1;stroke:none;fill-rule:nonzero"/>
 </g>
</svg>
